X:1
T:Silent Night
L:1/8
M:3/4
K:F
V:1 treble nm="Alto" snm="A."
V:1
 z6 | z6 | z6 | z6 |!mf! z C3 C2- | D6 | z C3 C2 | D2 D2- D z | C3 D C2 | A,4 z2 | z2 CD CA, | %11
w: ||||oo, _|_|||Si- * lent|night,|ho- * ly _|
 C A,2 A,2 z | G4 G2 | E6 | z C F2 FC | C4 z2 | D4 D2 | F3 E D2 | C3 D C2 | A,6 | z2 D3 D | %21
w: night. _ _|All is|calm|And all is _|bright|round yon|vir- * gin|Moth- er and|Child|Ho ly|
 FE .E2 z D | C3 D C2 | A,4 z2 | G4 G2 | B3 G E2 | F6 | A4 z2 | FD C- C2 A, | B,2 G2 (3AGF | %30
w: in- * fant, so|ten der and|mild,|sleep in|heav en ly|peace.|_|Sleep _ _ _ in|heav en ly _ _|
!mf! F6 | F6 | z6 | z6 |[K:Bb] z2 D3 F | G6 | z2 D3 F | A2 ^F2 G2 | z2 E2 G2 | G4 (3AGF | D4 A2 | %41
w: peace.|_|||Si lent|night,|ho ly|night. _ _|Shep herds|quake _ _ _|at the|
 _A2 G4 | z2 G2 D2 | B,4 AD | D4 BE | !tenuto!F z D2 A,2 | B,3 D G2 | F4 C2 | F,3 F C2 | D4 z2 | %50
w: sight, *|Ah, _|_ _ _||* ah _|_ _ _|* Sing|"al le lu|ia"|
 G4 G2 | ^F3 ^F ^F2 | G6 | ^F2 G2 z2 | =F2 D2 D2 | E3 E C2 | B,6 | B,6 | z6 | z6 | z F3 F2 | G6 | %62
w: Christ, the|Sav ior, is|born,|born. _|Christ, _ the|Sav ior is|born.|_|||Oo _|_|
 z F3 F2 | G2 G2 !fermata!G z | !fermata!D6 |] %65
w: oo, _|_ _ _||

